; generated by Slic3r Prusa Edition 1.40.1+win64 on 2018-08-26 at 09:55:35

; 

; external perimeters extrusion width = 0.45mm
; perimeters extrusion width = 0.45mm
; infill extrusion width = 0.45mm
; solid infill extrusion width = 0.45mm
; top infill extrusion width = 0.40mm
; first layer extrusion width = 0.42mm

M107
M115 U3.2.1 ; tell printer latest fw version
M201 X9000 Y9000 Z500 E10000 ; sets maximum accelerations, mm/sec^2
M203 X500 Y500 Z12 E120 ; sets maximum feedrates, mm/sec
M204 S1500 T1500 ; sets acceleration (S) and retract acceleration (T)
M205 X10 Y10 Z0.2 E2.5 ; sets the jerk limits, mm/sec
M205 S0 T0 ; sets the minimum extruding and travel feed rate, mm/sec
M83  ; extruder relative mode
; --- greg ---
G28 W ; home all without mesh bed level 
G90 ; use absolute coordinates
G0 X50 Y150 Z100 F1500 ; this is a good PINDA cooling position and to have place to clean bed
M860 S35 ; Wait for PINDA is <= 35C
; -----
M104 S215 ; set extruder temp
M140 S60 ; set bed temp
M190 S60 ; wait for bed temp
M109 S215 ; wait for extruder temp
; --- greg ---
M860 S35 ; wait until PINDA is >= 35C
M300 S440 P200 ; First beep
M300 S0 P250 ; Wait
M300 S440 P200 ; Second beep
G4 S15 ; Wait
M300 S440 P200 ; Ready beep
G4 S3 ; Wait
; ------
G28 W ; home all without mesh bed level
G80 ; mesh bed leveling
G81 ; check mesh leveling results
G1 Y-3.0 F1000.0 ; go outside print area
G92 E0.0
G1 X60.0 E9.0  F1000.0 ; intro line
G1 X100.0 E12.5  F1000.0 ; intro line
G92 E0.0
M900 K30; Filament gcode
G21 ; set units to millimeters
G90 ; use absolute coordinates
M83 ; use relative distances for extrusion
;BEFORE_LAYER_CHANGE
G92 E0.0
;0.2


G1 Z0.200 F10800.000
;AFTER_LAYER_CHANGE
;0.2
G1 E-1.00000 F2100.00000
G1 Z0.600 F10800.000
G1 X99.065 Y81.861
G1 Z0.200
G1 E1.00000 F2100.00000
M204 S1000
G1 F1408
G1 X101.597 Y79.308 E0.11613
G1 X102.302 Y78.726 E0.02952
G1 X103.355 Y78.169 E0.03849
G1 X104.176 Y77.923 E0.02766
G1 X104.793 Y77.831 E0.02015
G1 X147.004 Y77.811 E1.36319
G1 X147.947 Y77.899 E0.03058
G1 X148.934 Y78.185 E0.03320
G1 X149.842 Y78.659 E0.03308
G1 X150.610 Y79.274 E0.03178
G1 X151.271 Y80.056 E0.03307
G1 X151.641 Y80.682 E0.02345
G1 X151.993 Y81.589 E0.03143
G1 X152.174 Y82.608 E0.03344
G1 X152.188 Y127.055 E1.43539
G1 X152.102 Y127.943 E0.02882
G1 X151.837 Y128.876 E0.03132
G1 X151.385 Y129.771 E0.03237
G1 X150.960 Y130.351 E0.02322
G1 X150.248 Y131.046 E0.03213
G1 X149.315 Y131.642 E0.03576
G1 X148.333 Y132.013 E0.03389
G1 X147.025 Y132.188 E0.04263
G1 X102.942 Y132.188 E1.42367
G1 X102.057 Y132.102 E0.02870
G1 X101.121 Y131.836 E0.03144
G1 X100.229 Y131.385 E0.03226
G1 X99.647 Y130.958 E0.02334
G1 X98.954 Y130.248 E0.03202
G1 X98.358 Y129.315 E0.03577
G1 X97.987 Y128.333 E0.03389
G1 X97.812 Y127.025 E0.04263
G1 X97.812 Y85.184 E1.35125
G1 X97.907 Y84.253 E0.03022
G1 X98.181 Y83.322 E0.03134
G1 X98.487 Y82.686 E0.02281
G1 X99.031 Y81.911 E0.03058
G1 F8640
G1 X101.597 Y79.308 E-0.84396
G1 X101.951 Y79.015 E-0.10604
G1 E-0.05000 F2100.00000
G1 Z0.600 F10800.000
G1 X101.015 Y83.580
G1 Z0.200
G1 E1.00000 F2100.00000
G1 F1408
G1 X103.583 Y81.012 E0.11729
G1 X103.790 Y80.856 E0.00838
G1 X104.015 Y80.720 E0.00847
G1 X104.252 Y80.608 E0.00847
G1 X104.499 Y80.520 E0.00847
G1 X104.754 Y80.457 E0.00847
G1 X105.010 Y80.421 E0.00837
G1 X147.107 Y80.415 E1.35953
G1 X147.459 Y80.452 E0.01143
G1 X147.712 Y80.510 E0.00840
G1 X147.961 Y80.595 E0.00847
G1 X148.199 Y80.705 E0.00847
G1 X148.425 Y80.838 E0.00847
G1 X148.636 Y80.993 E0.00847
G1 X148.831 Y81.169 E0.00847
G1 X149.007 Y81.364 E0.00847
G1 X149.162 Y81.575 E0.00847
G1 X149.295 Y81.801 E0.00847
G1 X149.405 Y82.039 E0.00847
G1 X149.490 Y82.288 E0.00847
G1 X149.548 Y82.539 E0.00834
G1 X149.590 Y83.013 E0.01537
G1 X149.590 Y126.987 E1.42013
G1 X149.548 Y127.461 E0.01537
G1 X149.490 Y127.712 E0.00834
G1 X149.405 Y127.961 E0.00847
G1 X149.295 Y128.199 E0.00847
G1 X149.162 Y128.425 E0.00847
G1 X149.007 Y128.636 E0.00847
G1 X148.831 Y128.831 E0.00847
G1 X148.636 Y129.007 E0.00847
G1 X148.425 Y129.162 E0.00847
G1 X148.199 Y129.295 E0.00847
G1 X147.961 Y129.405 E0.00847
G1 X147.712 Y129.490 E0.00847
G1 X147.461 Y129.548 E0.00834
G1 X146.987 Y129.590 E0.01537
G1 X103.013 Y129.590 E1.42013
G1 X102.539 Y129.548 E0.01537
G1 X102.288 Y129.490 E0.00834
G1 X102.039 Y129.405 E0.00847
G1 X101.801 Y129.295 E0.00847
G1 X101.575 Y129.162 E0.00847
G1 X101.364 Y129.007 E0.00847
G1 X101.169 Y128.831 E0.00847
G1 X100.993 Y128.636 E0.00847
G1 X100.838 Y128.425 E0.00847
G1 X100.705 Y128.199 E0.00847
G1 X100.595 Y127.960 E0.00847
G1 X100.510 Y127.712 E0.00847
G1 X100.452 Y127.461 E0.00834
G1 X100.410 Y126.987 E0.01537
G1 X100.410 Y85.252 E1.34783
G1 X100.457 Y84.754 E0.01616
G1 X100.520 Y84.499 E0.00847
G1 X100.608 Y84.252 E0.00847
G1 X100.720 Y84.015 E0.00847
G1 X100.979 Y83.628 E0.01503
M106 S255
;BEFORE_LAYER_CHANGE
G92 E0.0
;0.4


G1 Z0.400 F10800.000
;AFTER_LAYER_CHANGE
;0.4
M104 S210 ; set temperature
G1 E-1.00000 F2100.00000
G1 Z0.800 F10800.000
G1 X98.866 Y82.146
G1 Z0.400
G1 E1.00000 F2100.00000
G1 F1519
G1 X99.065 Y81.861 E0.01121
G1 X101.597 Y79.308 E0.11613
G1 X102.302 Y78.726 E0.02952
G1 X103.355 Y78.169 E0.03849
G1 X104.176 Y77.923 E0.02766
G1 X104.793 Y77.831 E0.02015
G1 X147.004 Y77.811 E1.36319
G1 X147.947 Y77.899 E0.03058
G1 X148.934 Y78.185 E0.03320
G1 X149.842 Y78.659 E0.03308
G1 X150.610 Y79.274 E0.03178
G1 X151.271 Y80.056 E0.03307
G1 X151.641 Y80.682 E0.02345
G1 X151.993 Y81.589 E0.03143
G1 X152.174 Y82.608 E0.03344
G1 X152.188 Y127.055 E1.43539
G1 X152.102 Y127.943 E0.02882
G1 X151.837 Y128.876 E0.03132
G1 X151.385 Y129.771 E0.03237
G1 X150.960 Y130.351 E0.02322
G1 X150.248 Y131.046 E0.03213
G1 X149.315 Y131.642 E0.03576
G1 X148.333 Y132.013 E0.03389
G1 X147.025 Y132.188 E0.04263
G1 X102.942 Y132.188 E1.42367
G1 X102.057 Y132.102 E0.02870
G1 X101.121 Y131.836 E0.03144
G1 X100.229 Y131.385 E0.03226
G1 X99.647 Y130.958 E0.02334
G1 X98.954 Y130.248 E0.03202
G1 X98.358 Y129.315 E0.03577
G1 X97.987 Y128.333 E0.03389
G1 X97.812 Y127.025 E0.04263
G1 X97.812 Y85.184 E1.35125
G1 X97.907 Y84.253 E0.03022
G1 X98.181 Y83.322 E0.03134
G1 X98.487 Y82.686 E0.02281
G1 X98.831 Y82.195 E0.01937
G1 F8640
G1 X99.065 Y81.861 E-0.09403
G1 X101.597 Y79.308 E-0.83030
G1 X101.683 Y79.237 E-0.02567
G1 E-0.05000 F2100.00000
G1 Z0.800 F10800.000
G1 X100.742 Y83.635
G1 Z0.400
G1 E1.00000 F2100.00000
M204 S800
G1 F1519
G1 X101.041 Y83.277 E0.01627
G1 X103.465 Y80.870 E0.11911
G1 X103.687 Y80.703 E0.00967
G1 X103.927 Y80.557 E0.00980
G1 X104.181 Y80.437 E0.00980
G1 X104.446 Y80.342 E0.00980
G1 X104.719 Y80.275 E0.00980
G1 X104.993 Y80.237 E0.00965
G1 X147.113 Y80.230 E1.46849
G1 X147.492 Y80.269 E0.01329
G1 X147.763 Y80.332 E0.00971
G1 X148.029 Y80.423 E0.00980
G1 X148.285 Y80.541 E0.00980
G1 X148.527 Y80.683 E0.00980
G1 X148.753 Y80.850 E0.00980
G1 X148.962 Y81.038 E0.00980
G1 X149.150 Y81.247 E0.00980
G1 X149.317 Y81.473 E0.00980
G1 X149.459 Y81.715 E0.00980
G1 X149.577 Y81.971 E0.00980
G1 X149.668 Y82.237 E0.00980
G1 X149.731 Y82.510 E0.00980
G1 X149.766 Y82.786 E0.00970
G1 X149.775 Y126.990 E1.54112
G1 X149.730 Y127.494 E0.01763
G1 X149.668 Y127.763 E0.00965
G1 X149.577 Y128.029 E0.00980
G1 X149.459 Y128.285 E0.00980
G1 X149.317 Y128.527 E0.00980
G1 X149.150 Y128.753 E0.00980
G1 X148.962 Y128.962 E0.00980
G1 X148.753 Y129.150 E0.00980
G1 X148.527 Y129.317 E0.00980
G1 X148.285 Y129.459 E0.00980
G1 X148.029 Y129.577 E0.00980
G1 X147.763 Y129.668 E0.00980
G1 X147.494 Y129.730 E0.00965
G1 X146.990 Y129.775 E0.01763
G1 X103.010 Y129.775 E1.53333
G1 X102.506 Y129.730 E0.01763
G1 X102.237 Y129.668 E0.00965
G1 X101.971 Y129.577 E0.00980
G1 X101.715 Y129.459 E0.00980
G1 X101.473 Y129.317 E0.00980
G1 X101.247 Y129.150 E0.00980
G1 X101.038 Y128.962 E0.00980
G1 X100.850 Y128.753 E0.00980
G1 X100.683 Y128.527 E0.00980
G1 X100.541 Y128.285 E0.00980
G1 X100.423 Y128.029 E0.00980
G1 X100.332 Y127.763 E0.00980
G1 X100.270 Y127.494 E0.00965
G1 X100.225 Y126.990 E0.01763
G1 X100.225 Y85.248 E1.45532
G1 X100.236 Y84.998 E0.00872
G1 X100.275 Y84.719 E0.00983
G1 X100.342 Y84.446 E0.00980
G1 X100.437 Y84.181 E0.00980
G1 X100.557 Y83.927 E0.00980
G1 X100.705 Y83.683 E0.00995
M204 S1000
;BEFORE_LAYER_CHANGE
G92 E0.0
;0.6


G1 Z0.600 F10800.000
;AFTER_LAYER_CHANGE
;0.6
G1 E-1.00000 F2100.00000
G1 Z1.000 F10800.000
G1 X98.750 Y82.311
G1 Z0.600
G1 E1.00000 F2100.00000
G1 F1518
G1 X99.065 Y81.861 E0.01774
G1 X101.597 Y79.308 E0.11613
G1 X102.302 Y78.726 E0.02952
G1 X103.355 Y78.169 E0.03849
G1 X104.176 Y77.923 E0.02766
G1 X104.793 Y77.831 E0.02015
G1 X147.004 Y77.811 E1.36319
G1 X147.947 Y77.899 E0.03058
G1 X148.934 Y78.185 E0.03320
G1 X149.842 Y78.659 E0.03308
G1 X150.610 Y79.274 E0.03178
G1 X151.271 Y80.056 E0.03307
G1 X151.641 Y80.682 E0.02345
G1 X151.993 Y81.589 E0.03143
G1 X152.174 Y82.608 E0.03344
G1 X152.188 Y127.055 E1.43539
G1 X152.102 Y127.943 E0.02882
G1 X151.837 Y128.876 E0.03132
G1 X151.385 Y129.771 E0.03237
G1 X150.960 Y130.351 E0.02322
G1 X150.248 Y131.046 E0.03213
G1 X149.315 Y131.642 E0.03576
G1 X148.333 Y132.013 E0.03389
G1 X147.025 Y132.188 E0.04263
G1 X102.942 Y132.188 E1.42367
G1 X102.057 Y132.102 E0.02870
G1 X101.121 Y131.836 E0.03144
G1 X100.229 Y131.385 E0.03226
G1 X99.647 Y130.958 E0.02334
G1 X98.954 Y130.248 E0.03202
G1 X98.358 Y129.315 E0.03577
G1 X97.987 Y128.333 E0.03389
G1 X97.812 Y127.025 E0.04263
G1 X97.812 Y85.184 E1.35125
G1 X97.907 Y84.253 E0.03022
G1 X98.181 Y83.322 E0.03134
G1 X98.487 Y82.686 E0.02281
G1 X98.715 Y82.360 E0.01284
G1 F8640
G1 X99.065 Y81.861 E-0.14071
G1 X101.533 Y79.373 E-0.80929
G1 E-0.05000 F2100.00000
G1 Z1.000 F10800.000
G1 X100.703 Y83.687
G1 Z0.600
G1 E1.00000 F2100.00000
M204 S800
G1 F1518
G1 X100.872 Y83.461 E0.00983
G1 X101.041 Y83.277 E0.00871
G1 X103.465 Y80.870 E0.11911
G1 X103.687 Y80.703 E0.00967
G1 X103.927 Y80.557 E0.00980
G1 X104.181 Y80.437 E0.00980
G1 X104.446 Y80.342 E0.00980
G1 X104.719 Y80.275 E0.00980
G1 X104.993 Y80.237 E0.00965
G1 X147.112 Y80.230 E1.46845
G1 X147.492 Y80.269 E0.01333
G1 X147.763 Y80.332 E0.00971
G1 X148.029 Y80.423 E0.00980
G1 X148.285 Y80.541 E0.00980
G1 X148.527 Y80.683 E0.00980
G1 X148.753 Y80.850 E0.00980
G1 X148.962 Y81.038 E0.00980
G1 X149.150 Y81.247 E0.00980
G1 X149.317 Y81.473 E0.00980
G1 X149.459 Y81.715 E0.00980
G1 X149.577 Y81.971 E0.00980
G1 X149.668 Y82.237 E0.00980
G1 X149.731 Y82.510 E0.00980
G1 X149.766 Y82.786 E0.00970
G1 X149.775 Y126.990 E1.54112
G1 X149.730 Y127.494 E0.01763
G1 X149.668 Y127.763 E0.00965
G1 X149.577 Y128.029 E0.00980
G1 X149.459 Y128.285 E0.00980
G1 X149.317 Y128.527 E0.00980
G1 X149.150 Y128.753 E0.00980
G1 X148.962 Y128.962 E0.00980
G1 X148.753 Y129.150 E0.00980
G1 X148.527 Y129.317 E0.00980
G1 X148.285 Y129.459 E0.00980
G1 X148.029 Y129.577 E0.00980
G1 X147.763 Y129.668 E0.00980
G1 X147.494 Y129.730 E0.00965
G1 X146.990 Y129.775 E0.01763
G1 X103.010 Y129.775 E1.53333
G1 X102.506 Y129.730 E0.01763
G1 X102.237 Y129.668 E0.00965
G1 X101.971 Y129.577 E0.00980
G1 X101.715 Y129.459 E0.00980
G1 X101.473 Y129.317 E0.00980
G1 X101.247 Y129.150 E0.00980
G1 X101.038 Y128.962 E0.00980
G1 X100.850 Y128.753 E0.00980
G1 X100.683 Y128.527 E0.00980
G1 X100.541 Y128.285 E0.00980
G1 X100.423 Y128.029 E0.00980
G1 X100.332 Y127.763 E0.00980
G1 X100.270 Y127.494 E0.00965
G1 X100.225 Y126.990 E0.01763
G1 X100.225 Y85.248 E1.45532
G1 X100.236 Y84.998 E0.00872
G1 X100.275 Y84.719 E0.00983
G1 X100.342 Y84.446 E0.00980
G1 X100.437 Y84.181 E0.00980
G1 X100.557 Y83.927 E0.00980
G1 X100.672 Y83.738 E0.00771
M204 S1000
;BEFORE_LAYER_CHANGE
G92 E0.0
;0.8


G1 Z0.600 F10800.000
;AFTER_LAYER_CHANGE
;0.8
M204 S800
G1 F900
G1 Z0.600 X100.872 Y83.461 E0.01191
G1 Z0.601 X101.041 Y83.277 E0.00871
G1 Z0.604 X103.465 Y80.870 E0.11911
G1 Z0.604 X103.687 Y80.703 E0.00967
G1 Z0.605 X103.927 Y80.557 E0.00980
G1 Z0.605 X104.181 Y80.437 E0.00980
G1 Z0.605 X104.446 Y80.342 E0.00980
G1 Z0.606 X104.719 Y80.275 E0.00980
G1 Z0.606 X104.993 Y80.237 E0.00965
G1 Z0.650 X147.110 Y80.230 E1.46840
G1 Z0.650 X147.492 Y80.269 E0.01338
G1 Z0.650 X147.763 Y80.332 E0.00971
G1 Z0.651 X148.029 Y80.423 E0.00980
G1 Z0.651 X148.285 Y80.541 E0.00980
G1 Z0.651 X148.527 Y80.683 E0.00980
G1 Z0.652 X148.753 Y80.850 E0.00980
G1 Z0.652 X148.962 Y81.038 E0.00980
G1 Z0.652 X149.150 Y81.247 E0.00980
G1 Z0.653 X149.317 Y81.473 E0.00980
G1 Z0.653 X149.459 Y81.715 E0.00980
G1 Z0.653 X149.577 Y81.971 E0.00980
G1 Z0.653 X149.668 Y82.237 E0.00980
G1 Z0.654 X149.731 Y82.510 E0.00980
G1 Z0.654 X149.766 Y82.786 E0.00970
G1 Z0.700 X149.775 Y126.990 E1.54112
G1 Z0.701 X149.730 Y127.494 E0.01763
G1 Z0.701 X149.668 Y127.763 E0.00965
G1 Z0.701 X149.577 Y128.029 E0.00980
G1 Z0.701 X149.459 Y128.285 E0.00980
G1 Z0.702 X149.317 Y128.527 E0.00980
G1 Z0.702 X149.150 Y128.753 E0.00980
G1 Z0.702 X148.962 Y128.962 E0.00980
G1 Z0.703 X148.753 Y129.150 E0.00980
G1 Z0.703 X148.527 Y129.317 E0.00980
G1 Z0.703 X148.285 Y129.459 E0.00980
G1 Z0.703 X148.029 Y129.577 E0.00980
G1 Z0.704 X147.763 Y129.668 E0.00980
G1 Z0.704 X147.494 Y129.730 E0.00965
G1 Z0.705 X146.990 Y129.775 E0.01763
G1 Z0.750 X103.010 Y129.775 E1.53333
G1 Z0.751 X102.506 Y129.730 E0.01763
G1 Z0.751 X102.237 Y129.668 E0.00965
G1 Z0.751 X101.971 Y129.577 E0.00980
G1 Z0.752 X101.715 Y129.459 E0.00980
G1 Z0.752 X101.473 Y129.317 E0.00980
G1 Z0.752 X101.247 Y129.150 E0.00980
G1 Z0.753 X101.038 Y128.962 E0.00980
G1 Z0.753 X100.850 Y128.753 E0.00980
G1 Z0.753 X100.683 Y128.527 E0.00980
G1 Z0.753 X100.541 Y128.285 E0.00980
G1 Z0.754 X100.423 Y128.029 E0.00980
G1 Z0.754 X100.332 Y127.763 E0.00980
G1 Z0.754 X100.270 Y127.494 E0.00965
G1 Z0.755 X100.225 Y126.990 E0.01763
G1 Z0.798 X100.225 Y85.248 E1.45532
G1 Z0.799 X100.236 Y84.998 E0.00872
G1 Z0.799 X100.275 Y84.719 E0.00983
G1 Z0.799 X100.342 Y84.446 E0.00980
G1 Z0.799 X100.437 Y84.181 E0.00980
G1 Z0.800 X100.557 Y83.927 E0.00980
G1 Z0.800 X100.672 Y83.738 E0.00771
M204 S1000
;BEFORE_LAYER_CHANGE
G92 E0.0
;1


G1 Z0.800 F10800.000
;AFTER_LAYER_CHANGE
;1
M204 S800
G1 F900
G1 Z0.800 X100.872 Y83.461 E0.01191
G1 Z0.801 X101.041 Y83.277 E0.00871
G1 Z0.804 X103.465 Y80.870 E0.11911
G1 Z0.804 X103.687 Y80.703 E0.00967
G1 Z0.805 X103.927 Y80.557 E0.00980
G1 Z0.805 X104.181 Y80.437 E0.00980
G1 Z0.805 X104.446 Y80.342 E0.00980
G1 Z0.806 X104.719 Y80.275 E0.00980
G1 Z0.806 X104.993 Y80.237 E0.00965
G1 Z0.850 X147.109 Y80.230 E1.46836
G1 Z0.850 X147.492 Y80.269 E0.01342
G1 Z0.850 X147.763 Y80.332 E0.00971
G1 Z0.851 X148.029 Y80.423 E0.00980
G1 Z0.851 X148.285 Y80.541 E0.00980
G1 Z0.851 X148.527 Y80.683 E0.00980
G1 Z0.852 X148.753 Y80.850 E0.00980
G1 Z0.852 X148.962 Y81.038 E0.00980
G1 Z0.852 X149.150 Y81.247 E0.00980
G1 Z0.853 X149.315 Y81.471 E0.00969
G1 Z0.853 X149.501 Y81.808 E0.01343
G1 Z0.853 X149.669 Y82.241 E0.01619
G1 Z0.854 X149.731 Y82.510 E0.00964
G1 Z0.854 X149.766 Y82.786 E0.00970
G1 Z0.900 X149.775 Y126.990 E1.54112
G1 Z0.901 X149.730 Y127.494 E0.01763
G1 Z0.901 X149.668 Y127.763 E0.00965
G1 Z0.901 X149.577 Y128.029 E0.00980
G1 Z0.901 X149.459 Y128.285 E0.00980
G1 Z0.902 X149.317 Y128.527 E0.00980
G1 Z0.902 X149.150 Y128.753 E0.00980
G1 Z0.902 X148.962 Y128.962 E0.00980
G1 Z0.903 X148.753 Y129.150 E0.00980
G1 Z0.903 X148.527 Y129.317 E0.00980
G1 Z0.903 X148.285 Y129.459 E0.00980
G1 Z0.903 X148.029 Y129.577 E0.00980
G1 Z0.904 X147.763 Y129.668 E0.00980
G1 Z0.904 X147.494 Y129.730 E0.00965
G1 Z0.905 X146.990 Y129.775 E0.01763
G1 Z0.950 X103.010 Y129.775 E1.53333
G1 Z0.951 X102.506 Y129.730 E0.01763
G1 Z0.951 X102.237 Y129.668 E0.00965
G1 Z0.951 X101.971 Y129.577 E0.00980
G1 Z0.952 X101.715 Y129.459 E0.00980
G1 Z0.952 X101.473 Y129.317 E0.00980
G1 Z0.952 X101.247 Y129.150 E0.00980
G1 Z0.953 X101.038 Y128.962 E0.00980
G1 Z0.953 X100.850 Y128.753 E0.00980
G1 Z0.953 X100.683 Y128.527 E0.00980
G1 Z0.953 X100.541 Y128.285 E0.00980
G1 Z0.954 X100.423 Y128.029 E0.00980
G1 Z0.954 X100.332 Y127.763 E0.00980
G1 Z0.954 X100.270 Y127.494 E0.00965
G1 Z0.955 X100.225 Y126.990 E0.01763
G1 Z0.998 X100.225 Y85.248 E1.45532
G1 Z0.999 X100.236 Y84.998 E0.00872
G1 Z0.999 X100.275 Y84.719 E0.00983
G1 Z0.999 X100.342 Y84.446 E0.00980
G1 Z0.999 X100.437 Y84.181 E0.00980
