; generated by Slic3r Prusa Edition 1.40.1+win64 on 2018-08-21 at 19:39:17

; 

; external perimeters extrusion width = 0.45mm
; perimeters extrusion width = 0.45mm
; infill extrusion width = 0.45mm
; solid infill extrusion width = 0.45mm
; top infill extrusion width = 0.40mm
; first layer extrusion width = 0.42mm

M107
M115 U3.2.1 ; tell printer latest fw version
M201 X9000 Y9000 Z500 E10000 ; sets maximum accelerations, mm/sec^2
M203 X500 Y500 Z12 E120 ; sets maximum feedrates, mm/sec
M204 S1500 T1500 ; sets acceleration (S) and retract acceleration (T)
M205 X10 Y10 Z0.2 E2.5 ; sets the jerk limits, mm/sec
M205 S0 T0 ; sets the minimum extruding and travel feed rate, mm/sec
M83  ; extruder relative mode
; --- greg ---
G28 W ; home all without mesh bed level 
G90 ; use absolute coordinates
G0 X50 Y150 Z100 F1500 ; this is a good PINDA cooling position and to have place to clean bed
M860 S35 ; Wait for PINDA is <= 35C
; -----
M104 S215 ; set extruder temp
M140 S60 ; set bed temp
M190 S60 ; wait for bed temp
M109 S215 ; wait for extruder temp
; --- greg ---
M860 S35 ; wait until PINDA is >= 35C
M300 S440 P200 ; First beep
M300 S0 P250 ; Wait
M300 S440 P200 ; Second beep
G4 S60 ; Wait
M300 S440 P200 ; Ready beep
G4 S3 ; Wait
; ------
G28 W ; home all without mesh bed level
G80 ; mesh bed leveling
G81 ; check mesh leveling results
G1 Y-3.0 F1000.0 ; go outside print area
G92 E0.0
G1 X60.0 E9.0  F1000.0 ; intro line
G1 X100.0 E12.5  F1000.0 ; intro line
G92 E0.0
M900 K30; Filament gcode
G21 ; set units to millimeters
G90 ; use absolute coordinates
M83 ; use relative distances for extrusion
;BEFORE_LAYER_CHANGE
G92 E0.0
;0.2


G1 Z0.200 F10800.000
;AFTER_LAYER_CHANGE
;0.2
G1 E-0.80000 F2100.00000
G1 Z0.600 F10800.000
G1 X99.048 Y81.882
G1 Z0.200
G1 E0.80000 F2100.00000
M204 S1000
G1 F1408
G1 X101.597 Y79.308 E0.11699
G1 X102.309 Y78.721 E0.02979
G1 X103.352 Y78.170 E0.03809
G1 X104.760 Y77.834 E0.04676
G1 X147.004 Y77.811 E1.36425
G1 X148.003 Y77.909 E0.03242
G1 X148.965 Y78.198 E0.03243
G1 X149.862 Y78.672 E0.03278
G1 X150.599 Y79.265 E0.03055
G1 X151.077 Y79.793 E0.02300
G1 X151.617 Y80.636 E0.03235
G1 X151.971 Y81.516 E0.03061
G1 X152.167 Y82.539 E0.03364
G1 X152.188 Y127.055 E1.43765
G1 X152.091 Y128.003 E0.03077
G1 X151.823 Y128.910 E0.03055
G1 X151.371 Y129.794 E0.03207
G1 X150.953 Y130.359 E0.02271
G1 X150.207 Y131.077 E0.03342
G1 X149.078 Y131.753 E0.04249
G1 X148.043 Y132.082 E0.03507
G1 X147.031 Y132.188 E0.03288
G1 X102.945 Y132.188 E1.42374
G1 X101.997 Y132.091 E0.03077
G1 X101.087 Y131.822 E0.03065
G1 X100.206 Y131.370 E0.03197
G1 X99.641 Y130.953 E0.02270
G1 X98.764 Y129.993 E0.04198
G1 X98.247 Y129.078 E0.03393
G1 X97.918 Y128.044 E0.03507
G1 X97.812 Y127.029 E0.03295
G1 X97.812 Y85.184 E1.35137
G1 X97.910 Y84.238 E0.03072
G1 X98.179 Y83.326 E0.03070
G1 X98.626 Y82.455 E0.03164
G1 X99.012 Y81.930 E0.02103
G1 F8640
G1 X101.323 Y79.586 E-0.76000
G1 E-0.04000 F2100.00000
G1 Z0.600 F10800.000
G1 X100.844 Y83.472
G1 Z0.200
G1 E0.80000 F2100.00000
G1 F1408
G1 X101.031 Y83.266 E0.00899
G1 X103.266 Y81.031 E0.10209
G1 X103.472 Y80.844 E0.00899
G1 X103.697 Y80.678 E0.00901
G1 X103.927 Y80.540 E0.00869
G1 X104.175 Y80.423 E0.00884
G1 X104.433 Y80.330 E0.00885
G1 X104.694 Y80.265 E0.00869
G1 X104.970 Y80.224 E0.00901
G1 X105.248 Y80.210 E0.00899
G1 X146.996 Y80.210 E1.34826
G1 X147.272 Y80.224 E0.00893
G1 X147.543 Y80.264 E0.00885
G1 X147.809 Y80.330 E0.00885
G1 X148.067 Y80.422 E0.00885
G1 X148.315 Y80.539 E0.00884
G1 X148.550 Y80.680 E0.00885
G1 X148.770 Y80.843 E0.00885
G1 X148.973 Y81.027 E0.00885
G1 X149.157 Y81.230 E0.00885
G1 X149.320 Y81.450 E0.00885
G1 X149.461 Y81.685 E0.00885
G1 X149.578 Y81.933 E0.00884
G1 X149.670 Y82.191 E0.00885
G1 X149.736 Y82.457 E0.00885
G1 X149.776 Y82.728 E0.00885
G1 X149.790 Y83.001 E0.00885
G1 X149.790 Y126.995 E1.42077
G1 X149.776 Y127.272 E0.00898
G1 X149.736 Y127.543 E0.00885
G1 X149.670 Y127.809 E0.00885
G1 X149.578 Y128.067 E0.00885
G1 X149.461 Y128.315 E0.00884
G1 X149.320 Y128.550 E0.00885
G1 X149.157 Y128.770 E0.00885
G1 X148.973 Y128.973 E0.00885
G1 X148.770 Y129.157 E0.00885
G1 X148.550 Y129.320 E0.00885
G1 X148.315 Y129.461 E0.00885
G1 X148.067 Y129.578 E0.00884
G1 X147.809 Y129.670 E0.00885
G1 X147.543 Y129.736 E0.00885
G1 X147.272 Y129.776 E0.00885
G1 X146.995 Y129.790 E0.00898
G1 X103.005 Y129.790 E1.42065
G1 X102.728 Y129.776 E0.00898
G1 X102.457 Y129.736 E0.00885
G1 X102.191 Y129.670 E0.00885
G1 X101.933 Y129.578 E0.00885
G1 X101.685 Y129.461 E0.00884
G1 X101.450 Y129.320 E0.00885
G1 X101.230 Y129.157 E0.00885
G1 X101.027 Y128.973 E0.00885
G1 X100.843 Y128.770 E0.00885
G1 X100.680 Y128.550 E0.00885
G1 X100.539 Y128.315 E0.00885
G1 X100.422 Y128.067 E0.00884
G1 X100.330 Y127.809 E0.00885
G1 X100.264 Y127.543 E0.00885
G1 X100.224 Y127.272 E0.00885
G1 X100.210 Y126.995 E0.00898
G1 X100.210 Y85.248 E1.34822
G1 X100.224 Y84.970 E0.00898
G1 X100.264 Y84.699 E0.00885
G1 X100.330 Y84.433 E0.00885
G1 X100.423 Y84.175 E0.00885
G1 X100.540 Y83.927 E0.00885
G1 X100.808 Y83.520 E0.01574
M106 S255
;BEFORE_LAYER_CHANGE
G92 E0.0
;0.4


G1 Z0.400 F10800.000
;AFTER_LAYER_CHANGE
;0.4
M104 S210 ; set temperature
G1 E-0.80000 F2100.00000
G1 Z0.800 F10800.000
G1 X98.885 Y82.103
G1 Z0.400
G1 E0.80000 F2100.00000
G1 F1668
G1 X99.048 Y81.882 E0.00886
G1 X101.597 Y79.308 E0.11699
G1 X102.309 Y78.721 E0.02979
G1 X103.352 Y78.170 E0.03809
G1 X104.760 Y77.834 E0.04676
G1 X147.004 Y77.811 E1.36425
G1 X148.003 Y77.909 E0.03242
G1 X148.965 Y78.198 E0.03243
G1 X149.862 Y78.672 E0.03278
G1 X150.599 Y79.265 E0.03055
G1 X151.077 Y79.793 E0.02300
G1 X151.617 Y80.636 E0.03235
G1 X151.971 Y81.516 E0.03061
G1 X152.167 Y82.539 E0.03364
G1 X152.188 Y127.055 E1.43765
G1 X152.091 Y128.003 E0.03077
G1 X151.823 Y128.910 E0.03055
G1 X151.371 Y129.794 E0.03207
G1 X150.953 Y130.359 E0.02271
G1 X150.207 Y131.077 E0.03342
G1 X149.078 Y131.753 E0.04249
G1 X148.043 Y132.082 E0.03507
G1 X147.031 Y132.188 E0.03288
G1 X102.945 Y132.188 E1.42374
G1 X101.997 Y132.091 E0.03077
G1 X101.087 Y131.822 E0.03065
G1 X100.206 Y131.370 E0.03197
G1 X99.641 Y130.953 E0.02270
G1 X98.764 Y129.993 E0.04198
G1 X98.247 Y129.078 E0.03393
G1 X97.918 Y128.044 E0.03507
G1 X97.812 Y127.029 E0.03295
G1 X97.812 Y85.184 E1.35137
G1 X97.910 Y84.238 E0.03072
G1 X98.179 Y83.326 E0.03070
G1 X98.626 Y82.455 E0.03164
G1 X98.850 Y82.151 E0.01217
G1 F8640
G1 X99.048 Y81.882 E-0.07722
G1 X101.129 Y79.781 E-0.68278
G1 E-0.04000 F2100.00000
G1 Z0.800 F10800.000
G1 X100.779 Y83.585
G1 Z0.400
G1 E0.80000 F2100.00000
M204 S800
G1 F1668
G1 X101.042 Y83.277 E0.01412
G1 X103.481 Y80.856 E0.11980
G1 X103.713 Y80.686 E0.01004
G1 X103.934 Y80.553 E0.00900
G1 X104.181 Y80.437 E0.00951
G1 X104.438 Y80.345 E0.00951
G1 X104.688 Y80.282 E0.00900
G1 X104.973 Y80.238 E0.01003
G1 X105.248 Y80.225 E0.00962
G1 X146.998 Y80.225 E1.45559
G1 X147.269 Y80.238 E0.00944
G1 X147.539 Y80.278 E0.00951
G1 X147.803 Y80.344 E0.00951
G1 X148.060 Y80.436 E0.00951
G1 X148.307 Y80.552 E0.00951
G1 X148.541 Y80.692 E0.00951
G1 X148.760 Y80.855 E0.00951
G1 X148.962 Y81.038 E0.00951
G1 X149.145 Y81.240 E0.00951
G1 X149.308 Y81.459 E0.00951
G1 X149.448 Y81.693 E0.00951
G1 X149.564 Y81.940 E0.00951
G1 X149.656 Y82.197 E0.00951
G1 X149.722 Y82.461 E0.00951
G1 X149.762 Y82.731 E0.00951
G1 X149.775 Y82.994 E0.00918
G1 X149.775 Y126.995 E1.53404
G1 X149.762 Y127.269 E0.00958
G1 X149.722 Y127.539 E0.00951
G1 X149.656 Y127.803 E0.00951
G1 X149.564 Y128.060 E0.00951
G1 X149.448 Y128.307 E0.00951
G1 X149.308 Y128.541 E0.00951
G1 X149.145 Y128.760 E0.00951
G1 X148.962 Y128.962 E0.00951
G1 X148.760 Y129.145 E0.00951
G1 X148.541 Y129.308 E0.00951
G1 X148.307 Y129.448 E0.00951
G1 X148.060 Y129.564 E0.00951
G1 X147.803 Y129.656 E0.00951
G1 X147.539 Y129.722 E0.00951
G1 X147.269 Y129.762 E0.00951
G1 X146.995 Y129.775 E0.00958
G1 X103.005 Y129.775 E1.53365
G1 X102.731 Y129.762 E0.00958
G1 X102.461 Y129.722 E0.00951
G1 X102.197 Y129.656 E0.00951
G1 X101.940 Y129.564 E0.00951
G1 X101.693 Y129.448 E0.00951
G1 X101.459 Y129.308 E0.00951
G1 X101.240 Y129.145 E0.00951
G1 X101.038 Y128.962 E0.00951
G1 X100.855 Y128.760 E0.00951
G1 X100.692 Y128.541 E0.00951
G1 X100.552 Y128.307 E0.00951
G1 X100.436 Y128.060 E0.00951
G1 X100.344 Y127.803 E0.00951
G1 X100.278 Y127.539 E0.00951
G1 X100.238 Y127.269 E0.00951
G1 X100.225 Y126.995 E0.00958
G1 X100.225 Y85.248 E1.45546
G1 X100.238 Y84.973 E0.00960
G1 X100.278 Y84.703 E0.00952
G1 X100.345 Y84.438 E0.00952
G1 X100.437 Y84.181 E0.00952
G1 X100.553 Y83.934 E0.00952
G1 X100.743 Y83.633 E0.01241
M204 S1000
;BEFORE_LAYER_CHANGE
G92 E0.0
;0.6


G1 Z0.600 F10800.000
;AFTER_LAYER_CHANGE
;0.6
G1 E-0.80000 F2100.00000
G1 Z1.000 F10800.000
G1 X98.809 Y82.207
G1 Z0.600
G1 E0.80000 F2100.00000
G1 F1668
G1 X99.048 Y81.882 E0.01303
G1 X101.597 Y79.308 E0.11699
G1 X102.309 Y78.721 E0.02979
G1 X103.352 Y78.170 E0.03809
G1 X104.760 Y77.834 E0.04676
G1 X147.004 Y77.811 E1.36425
G1 X148.003 Y77.909 E0.03242
G1 X148.965 Y78.198 E0.03243
G1 X149.862 Y78.672 E0.03278
G1 X150.599 Y79.265 E0.03055
G1 X151.077 Y79.793 E0.02300
G1 X151.617 Y80.636 E0.03235
G1 X151.971 Y81.516 E0.03061
G1 X152.167 Y82.539 E0.03364
G1 X152.188 Y127.055 E1.43765
G1 X152.091 Y128.003 E0.03077
G1 X151.823 Y128.910 E0.03055
G1 X151.371 Y129.794 E0.03207
G1 X150.953 Y130.359 E0.02271
G1 X150.207 Y131.077 E0.03342
G1 X149.078 Y131.753 E0.04249
G1 X148.043 Y132.082 E0.03507
G1 X147.031 Y132.188 E0.03288
G1 X102.945 Y132.188 E1.42374
G1 X101.997 Y132.091 E0.03077
G1 X101.087 Y131.822 E0.03065
G1 X100.206 Y131.370 E0.03197
G1 X99.641 Y130.953 E0.02270
G1 X98.764 Y129.993 E0.04198
G1 X98.247 Y129.078 E0.03393
G1 X97.918 Y128.044 E0.03507
G1 X97.812 Y127.029 E0.03295
G1 X97.812 Y85.184 E1.35137
G1 X97.910 Y84.238 E0.03072
G1 X98.179 Y83.326 E0.03070
G1 X98.626 Y82.455 E0.03164
G1 X98.773 Y82.255 E0.00799
G1 F8640
G1 X99.048 Y81.882 E-0.10704
G1 X101.038 Y79.873 E-0.65296
G1 E-0.04000 F2100.00000
G1 Z1.000 F10800.000
G1 X100.701 Y83.689
G1 Z0.600
G1 E0.80000 F2100.00000
M204 S800
G1 F1668
G1 X100.858 Y83.480 E0.00912
G1 X101.042 Y83.277 E0.00955
G1 X103.480 Y80.857 E0.11976
G1 X103.721 Y80.681 E0.01040
G1 X103.934 Y80.553 E0.00867
G1 X104.181 Y80.437 E0.00952
G1 X104.438 Y80.345 E0.00952
G1 X104.679 Y80.284 E0.00867
G1 X104.974 Y80.238 E0.01040
G1 X105.248 Y80.225 E0.00958
G1 X147.001 Y80.225 E1.45568
G1 X147.267 Y80.238 E0.00928
G1 X147.537 Y80.278 E0.00952
G1 X147.802 Y80.344 E0.00952
G1 X148.059 Y80.435 E0.00952
G1 X148.306 Y80.552 E0.00952
G1 X148.540 Y80.692 E0.00952
G1 X148.760 Y80.855 E0.00952
G1 X148.962 Y81.038 E0.00952
G1 X149.145 Y81.240 E0.00952
G1 X149.308 Y81.460 E0.00952
G1 X149.448 Y81.694 E0.00952
G1 X149.565 Y81.941 E0.00952
G1 X149.656 Y82.198 E0.00952
G1 X149.722 Y82.463 E0.00952
G1 X149.762 Y82.733 E0.00953
G1 X149.774 Y82.987 E0.00884
G1 X149.775 Y126.995 E1.53431
G1 X149.762 Y127.267 E0.00950
G1 X149.722 Y127.537 E0.00952
G1 X149.656 Y127.802 E0.00952
G1 X149.565 Y128.059 E0.00952
G1 X149.448 Y128.306 E0.00952
G1 X149.308 Y128.540 E0.00952
G1 X149.145 Y128.760 E0.00952
G1 X148.962 Y128.962 E0.00952
G1 X148.760 Y129.145 E0.00952
G1 X148.540 Y129.308 E0.00952
G1 X148.306 Y129.448 E0.00952
G1 X148.059 Y129.565 E0.00952
G1 X147.802 Y129.656 E0.00952
G1 X147.537 Y129.722 E0.00952
G1 X147.267 Y129.762 E0.00952
G1 X146.995 Y129.775 E0.00950
G1 X103.005 Y129.775 E1.53365
G1 X102.733 Y129.762 E0.00950
G1 X102.463 Y129.722 E0.00952
G1 X102.198 Y129.656 E0.00952
G1 X101.941 Y129.565 E0.00952
G1 X101.694 Y129.448 E0.00952
G1 X101.460 Y129.308 E0.00952
G1 X101.240 Y129.145 E0.00952
G1 X101.038 Y128.962 E0.00952
G1 X100.855 Y128.760 E0.00952
G1 X100.692 Y128.540 E0.00952
G1 X100.552 Y128.306 E0.00952
G1 X100.435 Y128.059 E0.00952
G1 X100.344 Y127.802 E0.00952
G1 X100.278 Y127.537 E0.00952
G1 X100.238 Y127.267 E0.00952
G1 X100.225 Y126.995 E0.00950
G1 X100.225 Y85.248 E1.45546
G1 X100.238 Y84.974 E0.00955
G1 X100.278 Y84.704 E0.00954
G1 X100.344 Y84.438 E0.00954
G1 X100.437 Y84.181 E0.00954
G1 X100.670 Y83.740 E0.01738
M204 S1000
;BEFORE_LAYER_CHANGE
G92 E0.0
;0.8


G1 Z0.600 F10800.000
;AFTER_LAYER_CHANGE
;0.8
M204 S800
G1 F600
G1 Z0.600 X100.858 Y83.478 E0.01126
G1 Z0.601 X101.042 Y83.277 E0.00950
G1 Z0.604 X103.479 Y80.858 E0.11972
G1 Z0.605 X103.729 Y80.676 E0.01076
G1 Z0.605 X103.934 Y80.553 E0.00833
G1 Z0.605 X104.181 Y80.437 E0.00953
G1 Z0.606 X104.670 Y80.286 E0.01785
G1 Z0.606 X104.975 Y80.238 E0.01076
G1 Z0.606 X105.248 Y80.225 E0.00953
G1 Z0.650 X147.003 Y80.225 E1.45577
G1 Z0.650 X147.265 Y80.238 E0.00912
G1 Z0.650 X147.535 Y80.277 E0.00954
G1 Z0.650 X147.801 Y80.343 E0.00953
G1 Z0.651 X148.058 Y80.435 E0.00953
G1 Z0.651 X148.305 Y80.551 E0.00953
G1 Z0.651 X148.540 Y80.692 E0.00953
G1 Z0.652 X148.759 Y80.854 E0.00953
G1 Z0.652 X148.962 Y81.038 E0.00953
G1 Z0.652 X149.146 Y81.241 E0.00953
G1 Z0.652 X149.308 Y81.460 E0.00953
G1 Z0.653 X149.449 Y81.695 E0.00953
G1 Z0.653 X149.565 Y81.942 E0.00953
G1 Z0.653 X149.657 Y82.199 E0.00953
G1 Z0.654 X149.723 Y82.465 E0.00953
G1 Z0.654 X149.774 Y82.979 E0.01802
G1 Z0.700 X149.775 Y126.995 E1.53457
G1 Z0.700 X149.762 Y127.265 E0.00943
G1 Z0.701 X149.723 Y127.535 E0.00953
G1 Z0.701 X149.657 Y127.801 E0.00953
G1 Z0.701 X149.565 Y128.058 E0.00953
G1 Z0.701 X149.449 Y128.305 E0.00953
G1 Z0.702 X149.308 Y128.540 E0.00953
G1 Z0.702 X149.146 Y128.759 E0.00953
G1 Z0.702 X148.962 Y128.962 E0.00953
G1 Z0.703 X148.759 Y129.146 E0.00953
G1 Z0.703 X148.540 Y129.308 E0.00953
G1 Z0.703 X148.305 Y129.449 E0.00953
G1 Z0.703 X148.058 Y129.565 E0.00953
G1 Z0.704 X147.801 Y129.657 E0.00953
G1 Z0.704 X147.535 Y129.723 E0.00953
G1 Z0.704 X147.265 Y129.762 E0.00953
G1 Z0.705 X146.995 Y129.775 E0.00943
G1 Z0.750 X103.005 Y129.775 E1.53365
G1 Z0.751 X102.735 Y129.762 E0.00943
G1 Z0.751 X102.465 Y129.723 E0.00953
G1 Z0.751 X102.199 Y129.657 E0.00953
G1 Z0.751 X101.942 Y129.565 E0.00953
G1 Z0.752 X101.695 Y129.449 E0.00953
G1 Z0.752 X101.460 Y129.308 E0.00953
G1 Z0.752 X101.241 Y129.146 E0.00953
G1 Z0.753 X101.038 Y128.962 E0.00953
G1 Z0.753 X100.854 Y128.759 E0.00953
G1 Z0.753 X100.692 Y128.540 E0.00953
G1 Z0.753 X100.551 Y128.305 E0.00953
G1 Z0.754 X100.435 Y128.058 E0.00953
G1 Z0.754 X100.343 Y127.801 E0.00953
G1 Z0.754 X100.277 Y127.535 E0.00953
G1 Z0.755 X100.238 Y127.265 E0.00953
G1 Z0.755 X100.225 Y126.995 E0.00943
G1 Z0.798 X100.225 Y85.248 E1.45546
G1 Z0.799 X100.238 Y84.976 E0.00950
G1 Z0.799 X100.278 Y84.705 E0.00956
G1 Z0.799 X100.344 Y84.439 E0.00955
G1 Z0.799 X100.437 Y84.181 E0.00955
G1 Z0.800 X100.670 Y83.740 E0.01738
M204 S1000
;BEFORE_LAYER_CHANGE
G92 E0.0
;1


G1 Z0.800 F10800.000
;AFTER_LAYER_CHANGE
;1
M204 S800
G1 F600
G1 Z0.800 X100.859 Y83.477 E0.01131
G1 Z0.801 X101.042 Y83.277 E0.00945
G1 Z0.804 X103.478 Y80.859 E0.11968
G1 Z0.805 X103.737 Y80.672 E0.01112
G1 Z0.805 X104.181 Y80.437 E0.01752
G1 Z0.806 X104.661 Y80.289 E0.01752
G1 Z0.806 X104.976 Y80.238 E0.01112
G1 Z0.806 X105.248 Y80.225 E0.00949
G1 Z0.850 X147.006 Y80.225 E1.45586
G1 Z0.850 X147.263 Y80.238 E0.00896
G1 Z0.850 X147.534 Y80.277 E0.00955
G1 Z0.850 X147.799 Y80.343 E0.00954
G1 Z0.851 X148.057 Y80.435 E0.00954
G1 Z0.851 X148.305 Y80.551 E0.00954
G1 Z0.851 X148.539 Y80.691 E0.00954
G1 Z0.852 X148.759 Y80.854 E0.00954
G1 Z0.852 X148.962 Y81.038 E0.00954
G1 Z0.852 X149.146 Y81.241 E0.00954
G1 Z0.852 X149.309 Y81.461 E0.00954
G1 Z0.853 X149.449 Y81.695 E0.00954
G1 Z0.853 X149.565 Y81.943 E0.00954
G1 Z0.853 X149.657 Y82.201 E0.00954
G1 Z0.854 X149.723 Y82.466 E0.00954
G1 Z0.854 X149.774 Y82.971 E0.01769
G1 Z0.900 X149.775 Y126.995 E1.53484
G1 Z0.900 X149.762 Y127.263 E0.00935
G1 Z0.901 X149.723 Y127.534 E0.00955
G1 Z0.901 X149.657 Y127.799 E0.00954
G1 Z0.901 X149.565 Y128.057 E0.00954
G1 Z0.901 X149.449 Y128.305 E0.00954
G1 Z0.902 X149.309 Y128.539 E0.00954
G1 Z0.902 X149.146 Y128.759 E0.00954
G1 Z0.902 X148.962 Y128.962 E0.00954
G1 Z0.903 X148.759 Y129.146 E0.00954
G1 Z0.903 X148.539 Y129.309 E0.00954
G1 Z0.903 X148.305 Y129.449 E0.00954
G1 Z0.903 X148.057 Y129.565 E0.00954
G1 Z0.904 X147.799 Y129.657 E0.00954
G1 Z0.904 X147.534 Y129.723 E0.00954
G1 Z0.904 X147.263 Y129.762 E0.00955
