; generated by Slic3r Prusa Edition 1.40.1+win64 on 2018-08-21 at 15:25:18

; 

; external perimeters extrusion width = 0.45mm
; perimeters extrusion width = 0.45mm
; infill extrusion width = 0.45mm
; solid infill extrusion width = 0.45mm
; top infill extrusion width = 0.40mm
; first layer extrusion width = 0.42mm

M107
M115 U3.2.1 ; tell printer latest fw version
M201 X12000 Y12000 Z500 E12000 ; sets maximum accelerations, mm/sec^2
M203 X500 Y500 Z12 E120 ; sets maximum feedrates, mm/sec
M204 S1500 T1500 ; sets acceleration (S) and retract acceleration (T)
M205 X10 Y10 Z0.2 E2.5 ; sets the jerk limits, mm/sec
M205 S0 T0 ; sets the minimum extruding and travel feed rate, mm/sec
M83  ; extruder relative mode
; --- greg ---
G28 W ; home all without mesh bed level 
G90 ; use absolute coordinates
G0 X50 Y150 Z100 F1500 ; this is a good PINDA cooling position and to have place to clean bed
M860 S35 ; Wait for PINDA is <= 35C
; -----
M104 S230 ; set extruder temp
M140 S80 ; set bed temp
M190 S80 ; wait for bed temp
M109 S230 ; wait for extruder temp
; --- greg ---
M860 S35 ; wait until PINDA is >= 35C
M300 S440 P200 ; First beep
M300 S0 P250 ; Wait
M300 S440 P200 ; Second beep
G4 S15 ; Wait
M300 S440 P200 ; Ready beep
G4 S3 ; Wait
; ------
G28 W ; home all without mesh bed level
G80 ; mesh bed leveling
G81 ; check mesh leveling results
G1 Y-3.0 F1000.0 ; go outside print area
G92 E0.0
G1 X60.0 E9.0  F1000.0 ; intro line
G1 X100.0 E12.5  F1000.0 ; intro line
G92 E0.0
M900 K65; Filament gcode
G21 ; set units to millimeters
G90 ; use absolute coordinates
M83 ; use relative distances for extrusion
;BEFORE_LAYER_CHANGE
G92 E0.0
;0.2


G1 Z0.200 F10800.000
;AFTER_LAYER_CHANGE
;0.2
G1 E-1.00000 F2100.00000
G1 Z0.600 F10800.000
G1 X50.738 Y41.222
G1 Z0.200
G1 E1.00000 F2100.00000
M204 S1000
G1 F1800
G1 X60.524 Y31.381 E0.43740
G1 X61.378 Y30.606 E0.03638
G1 X63.046 Y29.445 E0.06404
G1 X64.885 Y28.581 E0.06403
G1 X66.062 Y28.209 E0.03891
G1 X68.054 Y27.860 E0.06376
G1 X190.004 Y27.811 E3.84367
G1 X192.120 Y27.997 E0.06695
G1 X193.164 Y28.229 E0.03370
G1 X194.250 Y28.578 E0.03598
G1 X195.237 Y28.996 E0.03376
G1 X196.911 Y29.962 E0.06092
G1 X198.554 Y31.319 E0.06718
G1 X199.330 Y32.157 E0.03598
G1 X199.974 Y32.995 E0.03332
G1 X201.044 Y34.844 E0.06733
G1 X201.773 Y36.845 E0.06712
G1 X202.145 Y38.986 E0.06850
G1 X202.188 Y170.044 E4.13075
G1 X202.002 Y172.122 E0.06576
G1 X201.449 Y174.181 E0.06720
G1 X200.553 Y176.098 E0.06671
G1 X199.979 Y176.999 E0.03365
G1 X199.279 Y177.900 E0.03597
G1 X198.550 Y178.685 E0.03377
G1 X197.067 Y179.929 E0.06100
G1 X196.107 Y180.548 E0.03601
G1 X195.146 Y181.049 E0.03415
G1 X194.164 Y181.455 E0.03349
G1 X193.069 Y181.794 E0.03614
G1 X191.159 Y182.131 E0.06111
G1 X190.020 Y182.188 E0.03595
G1 X59.956 Y182.188 E4.09943
G1 X57.878 Y182.002 E0.06576
G1 X55.819 Y181.449 E0.06720
G1 X53.902 Y180.553 E0.06671
G1 X53.001 Y179.979 E0.03365
G1 X52.100 Y179.279 E0.03597
G1 X51.315 Y178.550 E0.03377
G1 X50.068 Y177.062 E0.06118
G1 X49.451 Y176.106 E0.03586
G1 X48.951 Y175.146 E0.03412
G1 X48.545 Y174.164 E0.03349
G1 X48.206 Y173.069 E0.03614
G1 X47.868 Y171.155 E0.06126
G1 X47.812 Y170.023 E0.03573
G1 X47.812 Y49.091 E3.81159
G1 X47.997 Y47.021 E0.06551
G1 X48.552 Y44.958 E0.06732
G1 X49.451 Y43.037 E0.06684
G1 X50.024 Y42.139 E0.03360
G1 X50.701 Y41.269 E0.03474
G1 F8640
G1 X53.601 Y38.350 E-0.95000
G1 E-0.05000 F2100.00000
G1 Z0.600 F10800.000
G1 X52.501 Y42.849
G1 Z0.200
G1 E1.00000 F2100.00000
G1 F1800
G1 X53.074 Y42.223 E0.02677
G1 X62.216 Y33.081 E0.40750
G1 X62.849 Y32.501 E0.02706
G1 X63.527 Y31.981 E0.02692
G1 X64.247 Y31.522 E0.02692
G1 X65.005 Y31.127 E0.02692
G1 X65.794 Y30.801 E0.02692
G1 X66.608 Y30.544 E0.02692
G1 X67.442 Y30.359 E0.02692
G1 X68.289 Y30.247 E0.02692
G1 X69.147 Y30.210 E0.02706
G1 X189.995 Y30.210 E3.80898
G1 X190.848 Y30.247 E0.02688
G1 X191.700 Y30.359 E0.02710
G1 X192.534 Y30.544 E0.02691
G1 X193.348 Y30.801 E0.02692
G1 X194.137 Y31.127 E0.02692
G1 X194.895 Y31.522 E0.02692
G1 X195.615 Y31.981 E0.02692
G1 X196.293 Y32.501 E0.02692
G1 X196.926 Y33.082 E0.02710
G1 X197.499 Y33.707 E0.02674
G1 X198.016 Y34.380 E0.02674
G1 X198.475 Y35.100 E0.02692
G1 X198.873 Y35.863 E0.02710
G1 X199.199 Y36.652 E0.02692
G1 X199.456 Y37.466 E0.02692
G1 X199.641 Y38.300 E0.02692
G1 X199.753 Y39.147 E0.02692
G1 X199.790 Y40.005 E0.02706
G1 X199.790 Y169.995 E4.09713
G1 X199.753 Y170.853 E0.02706
G1 X199.641 Y171.700 E0.02692
G1 X199.458 Y172.528 E0.02674
G1 X199.199 Y173.348 E0.02710
G1 X198.873 Y174.137 E0.02692
G1 X198.478 Y174.895 E0.02692
G1 X198.019 Y175.615 E0.02692
G1 X197.499 Y176.293 E0.02692
G1 X196.922 Y176.922 E0.02692
G1 X196.293 Y177.499 E0.02692
G1 X195.615 Y178.019 E0.02692
G1 X194.895 Y178.478 E0.02692
G1 X194.137 Y178.873 E0.02692
G1 X193.348 Y179.199 E0.02692
G1 X192.534 Y179.456 E0.02692
G1 X191.700 Y179.641 E0.02692
G1 X190.853 Y179.753 E0.02692
G1 X189.995 Y179.790 E0.02706
G1 X60.005 Y179.790 E4.09713
G1 X59.147 Y179.753 E0.02706
G1 X58.300 Y179.641 E0.02692
G1 X57.472 Y179.458 E0.02674
G1 X56.652 Y179.199 E0.02710
G1 X55.863 Y178.873 E0.02692
G1 X55.105 Y178.478 E0.02692
G1 X54.385 Y178.019 E0.02692
G1 X53.707 Y177.499 E0.02692
G1 X53.078 Y176.922 E0.02692
G1 X52.501 Y176.293 E0.02692
G1 X51.981 Y175.615 E0.02692
G1 X51.522 Y174.895 E0.02692
G1 X51.127 Y174.137 E0.02692
G1 X50.801 Y173.348 E0.02692
G1 X50.544 Y172.534 E0.02692
G1 X50.359 Y171.700 E0.02692
G1 X50.248 Y170.853 E0.02692
G1 X50.210 Y169.995 E0.02706
G1 X50.210 Y49.137 E3.80927
G1 X50.247 Y48.289 E0.02677
G1 X50.361 Y47.429 E0.02733
G1 X50.548 Y46.594 E0.02699
G1 X50.801 Y45.794 E0.02644
G1 X51.120 Y45.021 E0.02637
G1 X51.522 Y44.247 E0.02747
G1 X51.981 Y43.527 E0.02691
G1 X52.464 Y42.897 E0.02503
;BEFORE_LAYER_CHANGE
G92 E0.0
;0.4


G1 Z0.200 F10800.000
;AFTER_LAYER_CHANGE
;0.4
M104 S270 ; set temperature
M140 S85 ; set bed temperature
M204 S800
G1 F4500
G1 Z0.200 X53.072 Y42.246 E0.03025
G1 Z0.205 X62.227 Y33.091 E0.44053
G1 Z0.205 X62.859 Y32.512 E0.02918
G1 Z0.205 X63.536 Y31.993 E0.02902
G1 Z0.206 X64.255 Y31.535 E0.02901
G1 Z0.206 X65.011 Y31.141 E0.02902
G1 Z0.206 X65.799 Y30.815 E0.02901
G1 Z0.207 X66.612 Y30.558 E0.02902
G1 Z0.207 X67.445 Y30.374 E0.02902
G1 Z0.207 X68.290 Y30.262 E0.02901
G1 Z0.207 X69.147 Y30.225 E0.02918
G1 Z0.249 X189.995 Y30.225 E4.11199
G1 Z0.250 X190.835 Y30.262 E0.02860
G1 Z0.250 X191.698 Y30.374 E0.02961
G1 Z0.250 X192.530 Y30.558 E0.02901
G1 Z0.251 X193.343 Y30.815 E0.02902
G1 Z0.251 X194.131 Y31.141 E0.02902
G1 Z0.251 X194.887 Y31.535 E0.02901
G1 Z0.252 X195.607 Y31.993 E0.02902
G1 Z0.252 X196.283 Y32.512 E0.02902
G1 Z0.252 X196.912 Y33.088 E0.02901
G1 Z0.252 X197.488 Y33.717 E0.02901
G1 Z0.253 X198.007 Y34.393 E0.02902
G1 Z0.253 X198.465 Y35.113 E0.02902
G1 Z0.253 X198.859 Y35.869 E0.02902
G1 Z0.254 X199.185 Y36.657 E0.02902
G1 Z0.254 X199.442 Y37.470 E0.02902
G1 Z0.254 X199.626 Y38.303 E0.02901
G1 Z0.254 X199.738 Y39.148 E0.02901
G1 Z0.255 X199.775 Y40.005 E0.02918
G1 Z0.300 X199.775 Y169.995 E4.42307
G1 Z0.300 X199.738 Y170.852 E0.02918
G1 Z0.300 X199.626 Y171.697 E0.02902
G1 Z0.301 X199.442 Y172.530 E0.02901
G1 Z0.301 X199.185 Y173.343 E0.02902
G1 Z0.301 X198.859 Y174.131 E0.02902
G1 Z0.302 X198.465 Y174.887 E0.02902
G1 Z0.302 X198.007 Y175.607 E0.02902
G1 Z0.302 X197.488 Y176.283 E0.02902
G1 Z0.303 X196.912 Y176.912 E0.02901
G1 Z0.303 X196.283 Y177.488 E0.02901
G1 Z0.303 X195.607 Y178.007 E0.02902
G1 Z0.303 X194.887 Y178.465 E0.02902
G1 Z0.304 X194.131 Y178.859 E0.02902
G1 Z0.304 X193.343 Y179.185 E0.02902
G1 Z0.304 X192.530 Y179.442 E0.02902
G1 Z0.305 X191.697 Y179.626 E0.02901
G1 Z0.305 X190.852 Y179.738 E0.02902
G1 Z0.305 X189.995 Y179.775 E0.02918
G1 Z0.350 X60.005 Y179.775 E4.42307
G1 Z0.351 X59.148 Y179.738 E0.02918
G1 Z0.351 X58.303 Y179.626 E0.02901
G1 Z0.351 X57.470 Y179.442 E0.02901
G1 Z0.352 X56.657 Y179.185 E0.02902
G1 Z0.352 X55.869 Y178.859 E0.02902
G1 Z0.352 X55.113 Y178.465 E0.02902
G1 Z0.352 X54.393 Y178.007 E0.02902
G1 Z0.353 X53.717 Y177.488 E0.02902
G1 Z0.353 X53.088 Y176.912 E0.02901
G1 Z0.353 X52.512 Y176.283 E0.02901
G1 Z0.354 X51.993 Y175.607 E0.02902
G1 Z0.354 X51.535 Y174.887 E0.02902
G1 Z0.354 X51.141 Y174.131 E0.02901
G1 Z0.355 X50.815 Y173.343 E0.02902
G1 Z0.355 X50.558 Y172.530 E0.02902
G1 Z0.355 X50.374 Y171.697 E0.02901
G1 Z0.355 X50.262 Y170.852 E0.02902
G1 Z0.356 X50.225 Y169.995 E0.02918
G1 Z0.398 X50.225 Y49.119 E4.11293
G1 Z0.398 X50.262 Y48.291 E0.02823
G1 Z0.398 X50.381 Y47.406 E0.03036
G1 Z0.399 X50.571 Y46.568 E0.02923
G1 Z0.399 X50.815 Y45.799 E0.02747
G1 Z0.399 X51.120 Y45.059 E0.02725
G1 Z0.399 X51.535 Y44.254 E0.03079
G1 Z0.400 X51.993 Y43.536 E0.02900
G1 Z0.400 X52.476 Y42.906 E0.02700
M204 S1000
;BEFORE_LAYER_CHANGE
G92 E0.0
;0.6


G1 Z0.400 F10800.000
;AFTER_LAYER_CHANGE
;0.6
M204 S800
G1 F6000
G1 Z0.400 X53.059 Y42.260 E0.02963
G1 Z0.405 X62.227 Y33.091 E0.44115
G1 Z0.405 X62.859 Y32.512 E0.02918
G1 Z0.405 X63.536 Y31.993 E0.02902
G1 Z0.406 X64.255 Y31.535 E0.02901
G1 Z0.406 X65.011 Y31.141 E0.02902
G1 Z0.406 X65.799 Y30.815 E0.02901
G1 Z0.407 X66.612 Y30.558 E0.02902
G1 Z0.407 X67.445 Y30.374 E0.02902
G1 Z0.407 X68.290 Y30.262 E0.02901
G1 Z0.407 X69.147 Y30.225 E0.02918
G1 Z0.449 X189.995 Y30.225 E4.11199
G1 Z0.450 X190.823 Y30.261 E0.02821
G1 Z0.450 X191.698 Y30.374 E0.03000
G1 Z0.450 X192.530 Y30.558 E0.02900
G1 Z0.451 X193.343 Y30.815 E0.02902
G1 Z0.451 X194.131 Y31.141 E0.02902
G1 Z0.451 X194.887 Y31.535 E0.02901
G1 Z0.452 X195.607 Y31.993 E0.02902
G1 Z0.452 X196.283 Y32.512 E0.02902
G1 Z0.452 X196.912 Y33.088 E0.02901
G1 Z0.452 X197.488 Y33.717 E0.02901
G1 Z0.453 X198.007 Y34.393 E0.02902
G1 Z0.453 X198.465 Y35.113 E0.02902
G1 Z0.453 X198.859 Y35.869 E0.02902
G1 Z0.454 X199.185 Y36.657 E0.02902
G1 Z0.454 X199.442 Y37.470 E0.02902
G1 Z0.454 X199.626 Y38.303 E0.02901
G1 Z0.454 X199.738 Y39.148 E0.02901
G1 Z0.455 X199.775 Y40.005 E0.02918
G1 Z0.500 X199.775 Y169.995 E4.42307
G1 Z0.500 X199.738 Y170.852 E0.02918
G1 Z0.500 X199.626 Y171.697 E0.02902
G1 Z0.501 X199.442 Y172.530 E0.02901
G1 Z0.501 X199.185 Y173.343 E0.02902
G1 Z0.501 X198.859 Y174.131 E0.02902
G1 Z0.502 X198.465 Y174.887 E0.02902
G1 Z0.502 X198.007 Y175.607 E0.02902
G1 Z0.502 X197.488 Y176.283 E0.02902
G1 Z0.503 X196.912 Y176.912 E0.02901
G1 Z0.503 X196.283 Y177.488 E0.02901
G1 Z0.503 X195.607 Y178.007 E0.02902
G1 Z0.503 X194.887 Y178.465 E0.02902
G1 Z0.504 X194.131 Y178.859 E0.02902
G1 Z0.504 X193.343 Y179.185 E0.02902
G1 Z0.504 X192.530 Y179.442 E0.02902
G1 Z0.505 X191.697 Y179.626 E0.02901
G1 Z0.505 X190.852 Y179.738 E0.02902
G1 Z0.505 X189.995 Y179.775 E0.02918
G1 Z0.550 X60.005 Y179.775 E4.42307
G1 Z0.551 X59.148 Y179.738 E0.02918
G1 Z0.551 X58.303 Y179.626 E0.02901
G1 Z0.551 X57.470 Y179.442 E0.02901
G1 Z0.552 X56.657 Y179.185 E0.02902
G1 Z0.552 X55.869 Y178.859 E0.02902
G1 Z0.552 X55.113 Y178.465 E0.02902
G1 Z0.552 X54.393 Y178.007 E0.02902
G1 Z0.553 X53.717 Y177.488 E0.02902
G1 Z0.553 X53.088 Y176.912 E0.02901
G1 Z0.553 X52.512 Y176.283 E0.02901
G1 Z0.554 X51.993 Y175.607 E0.02902
G1 Z0.554 X51.535 Y174.887 E0.02902
G1 Z0.554 X51.141 Y174.131 E0.02901
G1 Z0.555 X50.815 Y173.343 E0.02902
G1 Z0.555 X50.558 Y172.530 E0.02902
G1 Z0.555 X50.374 Y171.697 E0.02901
G1 Z0.555 X50.262 Y170.852 E0.02902
G1 Z0.556 X50.225 Y169.995 E0.02918
G1 Z0.598 X50.226 Y49.101 E4.11356
G1 Z0.598 X50.262 Y48.291 E0.02759
G1 Z0.598 X50.386 Y47.381 E0.03126
G1 Z0.599 X50.579 Y46.539 E0.02937
G1 Z0.599 X50.815 Y45.799 E0.02644
G1 Z0.599 X51.106 Y45.090 E0.02608
G1 Z0.599 X51.535 Y44.254 E0.03197
G1 Z0.600 X51.993 Y43.536 E0.02899
G1 Z0.600 X52.476 Y42.906 E0.02700
M204 S1000
M106 S178.5
;BEFORE_LAYER_CHANGE
G92 E0.0
;0.8


G1 Z0.600 F10800.000
;AFTER_LAYER_CHANGE
;0.8
M204 S800
G1 F7500
G1 Z0.600 X53.046 Y42.273 E0.02900
G1 Z0.605 X62.227 Y33.091 E0.44178
G1 Z0.605 X62.859 Y32.512 E0.02918
G1 Z0.605 X63.536 Y31.993 E0.02902
G1 Z0.606 X64.255 Y31.535 E0.02901
G1 Z0.606 X65.011 Y31.141 E0.02902
G1 Z0.606 X65.799 Y30.815 E0.02901
G1 Z0.607 X66.612 Y30.558 E0.02902
G1 Z0.607 X67.445 Y30.374 E0.02902
G1 Z0.607 X68.290 Y30.262 E0.02901
G1 Z0.607 X69.147 Y30.225 E0.02918
G1 Z0.649 X189.995 Y30.225 E4.11199
G1 Z0.650 X190.812 Y30.261 E0.02781
G1 Z0.650 X191.698 Y30.374 E0.03040
G1 Z0.650 X192.530 Y30.558 E0.02900
G1 Z0.651 X193.343 Y30.815 E0.02902
G1 Z0.651 X194.131 Y31.141 E0.02902
G1 Z0.651 X194.887 Y31.535 E0.02901
G1 Z0.652 X195.607 Y31.993 E0.02902
G1 Z0.652 X196.283 Y32.512 E0.02902
G1 Z0.652 X196.912 Y33.088 E0.02901
G1 Z0.652 X197.488 Y33.717 E0.02901
G1 Z0.653 X198.007 Y34.393 E0.02902
G1 Z0.653 X198.465 Y35.113 E0.02902
G1 Z0.653 X198.859 Y35.869 E0.02902
G1 Z0.654 X199.185 Y36.657 E0.02902
G1 Z0.654 X199.442 Y37.470 E0.02902
G1 Z0.654 X199.626 Y38.303 E0.02901
G1 Z0.654 X199.738 Y39.148 E0.02901
G1 Z0.655 X199.775 Y40.005 E0.02918
G1 Z0.700 X199.775 Y169.995 E4.42307
G1 Z0.700 X199.738 Y170.852 E0.02918
G1 Z0.700 X199.626 Y171.697 E0.02902
G1 Z0.701 X199.442 Y172.530 E0.02901
G1 Z0.701 X199.185 Y173.343 E0.02902
G1 Z0.701 X198.874 Y174.094 E0.02764
G1 Z0.702 X198.465 Y174.888 E0.03040
G1 Z0.702 X198.007 Y175.607 E0.02900
G1 Z0.702 X197.488 Y176.283 E0.02902
G1 Z0.703 X196.912 Y176.912 E0.02901
G1 Z0.703 X196.283 Y177.488 E0.02901
G1 Z0.703 X195.607 Y178.007 E0.02902
G1 Z0.703 X194.887 Y178.465 E0.02902
G1 Z0.704 X194.131 Y178.859 E0.02902
G1 Z0.704 X193.343 Y179.185 E0.02902
G1 Z0.704 X192.530 Y179.442 E0.02902
G1 Z0.705 X191.697 Y179.626 E0.02901
G1 Z0.705 X190.852 Y179.738 E0.02902
G1 Z0.705 X189.995 Y179.775 E0.02918
G1 Z0.750 X60.005 Y179.775 E4.42307
G1 Z0.751 X59.148 Y179.738 E0.02918
G1 Z0.751 X58.303 Y179.626 E0.02901
G1 Z0.751 X57.470 Y179.442 E0.02901
G1 Z0.752 X56.657 Y179.185 E0.02902
G1 Z0.752 X55.906 Y178.874 E0.02764
G1 Z0.752 X55.112 Y178.465 E0.03040
G1 Z0.752 X54.393 Y178.007 E0.02900
G1 Z0.753 X53.717 Y177.488 E0.02902
G1 Z0.753 X53.088 Y176.912 E0.02901
G1 Z0.753 X52.512 Y176.283 E0.02901
G1 Z0.754 X51.993 Y175.607 E0.02902
G1 Z0.754 X51.535 Y174.887 E0.02902
G1 Z0.754 X51.141 Y174.131 E0.02901
G1 Z0.755 X50.815 Y173.343 E0.02902
G1 Z0.755 X50.558 Y172.530 E0.02902
G1 Z0.755 X50.374 Y171.697 E0.02901
G1 Z0.755 X50.262 Y170.852 E0.02902
G1 Z0.756 X50.225 Y169.995 E0.02918
G1 Z0.798 X50.226 Y49.083 E4.11418
G1 Z0.798 X50.262 Y48.291 E0.02696
G1 Z0.798 X50.391 Y47.355 E0.03216
G1 Z0.799 X50.588 Y46.510 E0.02951
G1 Z0.799 X50.815 Y45.799 E0.02540
G1 Z0.799 X51.092 Y45.122 E0.02490
G1 Z0.799 X51.535 Y44.254 E0.03315
G1 Z0.800 X51.993 Y43.536 E0.02898
G1 Z0.800 X52.476 Y42.906 E0.02700
M204 S1000
;BEFORE_LAYER_CHANGE
G92 E0.0
;1


G1 Z0.800 F10800.000
;AFTER_LAYER_CHANGE
;1
M204 S800
G1 F9000
G1 Z0.800 X53.034 Y42.286 E0.02838
G1 Z0.805 X62.227 Y33.091 E0.44241
G1 Z0.805 X62.859 Y32.512 E0.02918
G1 Z0.805 X63.536 Y31.993 E0.02902
G1 Z0.806 X64.255 Y31.535 E0.02901
G1 Z0.806 X65.011 Y31.141 E0.02902
G1 Z0.806 X65.799 Y30.815 E0.02901
G1 Z0.807 X66.612 Y30.558 E0.02902
G1 Z0.807 X67.445 Y30.374 E0.02902
G1 Z0.807 X68.290 Y30.262 E0.02901
G1 Z0.807 X69.147 Y30.225 E0.02918
G1 Z0.849 X189.995 Y30.225 E4.11199
G1 Z0.850 X190.800 Y30.260 E0.02742
G1 Z0.850 X191.698 Y30.374 E0.03079
G1 Z0.850 X192.530 Y30.558 E0.02899
G1 Z0.851 X193.343 Y30.815 E0.02902
G1 Z0.851 X194.131 Y31.141 E0.02902
G1 Z0.851 X194.887 Y31.535 E0.02901
G1 Z0.852 X195.607 Y31.993 E0.02902
G1 Z0.852 X196.283 Y32.512 E0.02902
G1 Z0.852 X196.912 Y33.088 E0.02901
G1 Z0.852 X197.488 Y33.717 E0.02901
G1 Z0.853 X198.007 Y34.393 E0.02902
G1 Z0.853 X198.465 Y35.113 E0.02902
G1 Z0.853 X198.859 Y35.869 E0.02902
G1 Z0.854 X199.185 Y36.657 E0.02902
G1 Z0.854 X199.442 Y37.470 E0.02902
G1 Z0.854 X199.626 Y38.303 E0.02901
G1 Z0.854 X199.738 Y39.148 E0.02901
G1 Z0.855 X199.775 Y40.005 E0.02918
G1 Z0.900 X199.775 Y169.995 E4.42307
G1 Z0.900 X199.738 Y170.852 E0.02918
G1 Z0.900 X199.633 Y171.646 E0.02725
G1 Z0.901 X199.442 Y172.530 E0.03079
G1 Z0.901 X199.185 Y173.343 E0.02900
G1 Z0.901 X198.859 Y174.131 E0.02902
G1 Z0.902 X198.465 Y174.887 E0.02902
G1 Z0.902 X198.007 Y175.607 E0.02902
G1 Z0.902 X197.488 Y176.283 E0.02902
G1 Z0.903 X196.912 Y176.912 E0.02901
